svg/sad.svg

<svg width="32" height="32" fill="none" xmlns="http://www.w3.org/2000/svg"><path fill-rule="evenodd" clip-rule="evenodd" d="M26 15.5c0 5.523-4.477 10-10 10s-10-4.477-10-10 4.477-10 10-10 10 4.477 10 10zm2 0c0 6.627-5.373 12-12 12s-12-5.373-12-12 5.373-12 12-12 12 5.373 12 12zm-17.5 0a1.5 1.5 0 1 0 0-3 1.5 1.5 0 0 0 0 3zM23 14a1.5 1.5 0 1 1-3 0 1.5 1.5 0 0 1 3 0z" fill="#000"/><path fill-rule="evenodd" clip-rule="evenodd" d="M21.015 20.5c-.466-2.285-2.55-4-5-4-2.452 0-4.535 1.715-5 4-.26 1.269 3 1.5 5 1.5s5.232-.36 5-1.5zM14 19s.896.5 2 .5c1.105 0 2-.5 2-.5s-.895-1-2-1c-1.104 0-2 1-2 1z" fill="#000"/></svg>

<svg width="32" height="32" viewBox="0 0 32 32" fill="none" xmlns="http://www.w3.org/2000/svg">
<path fill-rule="evenodd" clip-rule="evenodd" d="M26 15.5C26 21.023 21.523 25.5 16 25.5C10.477 25.5 6 21.023 6 15.5C6 9.977 10.477 5.5 16 5.5C21.523 5.5 26 9.977 26 15.5ZM28 15.5C28 22.127 22.627 27.5 16 27.5C9.373 27.5 4 22.127 4 15.5C4 8.873 9.373 3.5 16 3.5C22.627 3.5 28 8.873 28 15.5ZM10.5 15.5C11.329 15.5 12 14.828 12 14C12 13.172 11.329 12.5 10.5 12.5C9.671 12.5 9 13.172 9 14C9 14.828 9.671 15.5 10.5 15.5ZM23 14C23 14.828 22.329 15.5 21.5 15.5C20.671 15.5 20 14.828 20 14C20 13.172 20.671 12.5 21.5 12.5C22.329 12.5 23 13.172 23 14Z" fill="black"/>
<path fill-rule="evenodd" clip-rule="evenodd" d="M21.0145 20.5C20.5485 18.215 18.4645 16.5 16.0145 16.5C13.5635 16.5 11.4805 18.215 11.0145 20.5C10.7555 21.769 14.0145 22 16.0145 22C18.0145 22 21.2465 21.64 21.0145 20.5ZM14 19C14 19 14.896 19.5 16 19.5C17.105 19.5 18 19 18 19C18 19 17.105 18 16 18C14.896 18 14 19 14 19Z" fill="black"/>
</svg>
